libs/ui/packages/crypto-icons/src/svg/PURA.svg

<svg width="24" height="24" viewBox="0 0 24 24" fill="none">
<path d="M8.39412 5.625H14.2171C15.8281 5.72025 17.6004 6.3825 18.3121 7.92C19.2024 9.87825 18.7599 12.6323 16.7544 13.7498C14.9049 14.8073 12.6924 14.3902 10.6614 14.4772C10.6066 15.4777 10.8864 16.6417 10.1889 17.4877C9.90837 17.8927 8.62212 18.375 8.62212 18.375C8.62212 18.375 8.50362 17.2883 8.46012 14.8425C8.43237 14.1675 8.54262 13.41 9.12237 12.9713C9.80112 12.3878 10.7634 12.57 11.5876 12.54C12.8326 12.507 14.1406 12.6975 15.3226 12.2175C17.0566 11.5088 17.1196 8.6145 15.3721 7.88475C13.5879 7.19325 11.6176 7.8225 9.78462 7.44C8.95212 7.20675 8.57787 6.387 8.39412 5.625ZM5.25012 8.9475C6.77262 8.97525 8.29812 8.89425 9.81762 8.98575C10.9224 9.0705 11.6476 10.071 11.7631 11.094C10.2301 11.0865 8.69337 11.1428 7.15962 11.0753C6.21762 11.0205 5.52237 10.2555 5.25012 9.41175V8.94825V8.9475Z" fill="#333333"/>
</svg>

<svg width="24" height="24" viewBox="0 0 24 24" fill="none"><path fill="#333" d="M8.394 5.625h5.823c1.611.095 3.383.758 4.095 2.295.89 1.958.448 4.712-1.558 5.83-1.85 1.057-4.062.64-6.093.727-.054 1 .225 2.165-.472 3.01-.28.406-1.567.888-1.567.888s-.118-1.087-.162-3.533c-.028-.675.083-1.432.662-1.87.68-.584 1.641-.402 2.466-.432 1.245-.033 2.553.158 3.735-.322 1.734-.71 1.797-3.604.05-4.333-1.785-.692-3.755-.062-5.588-.445-.833-.233-1.207-1.053-1.39-1.815M5.25 8.948c1.523.027 3.048-.054 4.568.038 1.104.084 1.83 1.085 1.945 2.108-1.533-.008-3.07.049-4.603-.019-.942-.054-1.638-.82-1.91-1.663z"/></svg>
